!!!OTL: NUR LUSTIG IHR BRUEDER
!!!ARE: Europa, Mitteleuropa, Deutschland; France, Elsass
!!!SCT: E1167
!!!YEM: Copyright 1995, estate of Helmut Schaffrath.
**kern
*ICvox
*Ivox
*M6/8
*k[f#]
*G:
{8d
=1
8d
8g
8g
8g
8g
8f#
=2
8f#
8e
8e
4e}
{8e
=3
8g
8f#
8e
8g
8f#
8e
=4
8.e
16d
8d
8d
8d}
{8d
=5
8.d
16cc
8cc
8cc
8cc
8dd
=6
8.dd
16b
8b
4b}
{8g
=7
8a
8a
8a
8cc
8b
8a
=8
8a
8g
8g
4g}
{8d
=9
8.d
16cc
8cc
8cc
8cc
8dd
=10
8.dd
16b
8b
4b}
{8g
=11
8a
8a
8a
8cc
8b
8a
=12
8a
8g
8g
4g}
==
!!!AGN: Trink -, Zech - Lied
!!!ONB: ESAC (Essen Associative Code) Database: ERK3
!!!AMT: compound duple
!!!AIN: vox
!!!EED: Helmut Schaffrath
!!!EEV: 1.0
*-
